!!!COM:	Martini, Johannes
!!!CDT:	~1440///-~1497//
!!!OTL:	In convertendo
!!!AGN:	Motet
!!!SCT:	Mar2051
!!!SCA:	Mar2051
!!!voices:	2
**kern	**kern
*staff2	*staff1
*Ivox	*Ivox
*I"Tenor	*I"Superius
*I'T	*I'S
*>[A,B,C,D,E,F,G,H,I,J]	*>[A,B,C,D,E,F,G,H,I,J]
*>A	*>A
*clefGv2	*clefG2
*k[]	*k[]
*M2/1	*M2/1
*met(C)	*met(C)
!!section: Facti sumus
!!!OMD: Facti sumus
=1-	=1-
!!LO:TX:Z=8:t=Choir 1
1A	1a
2c\	2a/
2c\	2a/
=2	=2
1c	1a
2c\	2a/
2c\	2a/
=3	=3
2B\	2g/
2A/	2f/
1B	1g
=4	=4
0Al	0al
=5||	=5||
*>B	*>B
!!section: Tunc repletum
!!!OMD: Tunc repletum
!!LO:TX:Z=8:t=Choir 2
1A	1f
2B\	2g/
2B\	2g/
=6	=6
2A/	2a/
2A/	2a/
2c\	2a/
2c\	2a/
=7	=7
1c	1a
2c\	2a/
[2d\	[2b\
=8	=8
4d\]	4b\]
4c\	4a/
4B\	4g#i/
4A/	4f#i/
1B	1g#i
=9	=9
1A	1a
1r	1r
=10	=10
1c	1a
2c\	2a/
2c\	2a/
=11	=11
1c	1a
1c	1a
=12	=12
2c\	2a/
2B\	2g/
2A/	2f/
[2d\	[2b-i\
=13	=13
4d\]	4b-\]
4c\	4a/
2A/	1a
1B-i	.
.	2g/
=14	=14
0Al	0al
=15||	=15||
*>C	*>C
!!section: Tunc dicent
!!!OMD: Tunc dicent
!!LO:TX:Z=8:t=Choir 1
2A/	2a/
2A/	2a/
2c\	2a/
2c\	2a/
=16	=16
2c\	2a/
2c\	2a/
1c	1a
=17	=17
1r	1r
1c	1a
=18	=18
2c\	2a/
2c\	2a/
2c\	2a/
2c\	2a/
=19	=19
2c\	2a/
2c\	2a/
1c	1a
=20	=20
2c\	2a/
2c\	2a/
2B\	2g/
2A/	2f/
=21	=21
1B	1g
1Al	1al
=22||	=22||
*>D	*>D
!!LO:TX:Z=8:t=Choir 2
!!section: Magnificavit Dominus
!!!OMD: Magnificavit Dominus
1A	1a
2c\	2a/
2c\	2a/
=23	=23
2c\	2a/
2c\	2a/
2c\	2a/
2c\	2a/
=24	=24
1c	1a
2c\	2a/
2c\	2a/
=25	=25
2c\	2a/
2c\	2a/
1c	1a
=26	=26
1A	1a
1r	1r
=27	=27
2c\	2a/
2c\	2a/
1B	1g
=28	=28
2.A/	2f/
.	1b-i
4G/	.
2A/	.
2c\	[2a/
=29	=29
1B-i	2a/]
.	2g/
1Al	1al
=30||	=30||
*>E	*>E
!!section: Converte, Domine
!!!OMD: Converte, Domine
!!LO:TX:Z=8:t=Choir 1
1A	1a
2c\	2a/
2c\	2a/
=31	=31
2c\	2a/
2c\	2a/
1c	1a
=32	=32
1c	1a
2c\	2a/
2c\	2a/
=33	=33
2c\	2a/
2c\	2a/
1c	1a
=34	=34
1A	1a
1r	1r
=35	=35
2c\	2a/
2c\	2a/
1c	1a
=36	=36
2B\	2g/
2A/	2f/
1B	1g
=37	=37
0Al	0al
=38||	=38||
*>F	*>F
!!section: Qui seminant
!!!OMD: Qui seminant
!!LO:TX:Z=8:t=Choir 2
1A	1a
2c\	2a/
2c\	2a/
=39	=39
2c\	2a/
2c\	2a/
2c\	2a/
2c\	2a/
=40	=40
1A	1a
1r	1r
=41	=41
1c	1a
2c\	2a/
2c\	2a/
=42	=42
1B	1g
2A/	2f/
2B\	2g/
=43	=43
2c\	2a/
1d	1b
[2c\	[2a/
=44	=44
2c\]	2a/]
4B\	4g#i/
4A/	4f#i/
1B	1g#i
=45	=45
0Al	0al
=46||	=46||
*>G	*>G
!!LO:TX:Z=8:t=Choir 1
!!section: Euntes ibant
!!!OMD: Euntes ibant
1A	1a
2c\	2a/
2c\	2a/
=47	=47
2c\	2a/
2c\	2a/
2c\	2a/
2c\	2a/
=48	=48
1A	1a
1r	1r
=49	=49
2c\	2a/
2c\	2a/
1c	1a
=50	=50
1c	1a
2B\	2g/
2A/	2f/
=51	=51
1B	1g
1Al	1al
=52||	=52||
*>H	*>H
!!LO:TX:Z=8:t=Choir 2
!!section: Venientes
!!!OMD: Venientes
1A	1f
1B	1g
=53	=53
1c	1a
1A	1a
=54	=54
2c\	2a/
2c\	2a/
2c\	2a/
2c\	2a/
=55	=55
1c	1a
2c\	2a/
2c\	2a/
=56	=56
2c\	2a/
2c\	2a/
2c\	2a/
2c\	2a/
=57	=57
1A	1a
1r	1r
=58	=58
2c\	2a/
2c\	2a/
1c	1a
=59	=59
2c\	2a/
2c\	2a/
2B\	2g/
2A/	2f/
=60	=60
1B	1g
1Al	1al
=61||	=61||
*>I	*>I
!!LO:TX:Z=8:t=Choir 1
!!section: Gloria Patri
!!!OMD: Gloria Patri
2A/	2a/
2A/	2a/
2c\	2a/
2c\	2a/
=62	=62
2c\	2a/
2c\	2a/
2c\	2a/
2c\	2a/
=63	=63
1A	1a
1r	1r
=64	=64
1c	1a
2c\	2a/
2c\	2a/
=65	=65
2B\	2g/
2A/	2f/
1B	1g
=66	=66
0Al	0al
=67||	=67||
*>J	*>J
!!section: Sicut erat
!!!OMD: Sicut erat
!!LO:TX:Z=8:t=Choir 2
2A/	2a/
2A/	2a/
2c\	2a/
2c\	2a/
=68	=68
2c\	2a/
2c\	2a/
2c\	2a/
2c\	2a/
=69	=69
1A	1a
1B	1g
=70	=70
2c\	2a/
1d	1b
2c\	[2a/
=71	=71
1B	2a/]
.	2g#i/
1A	1a
=72	=72
1r	1r
2c\	2a/
2c\	2a/
=73	=73
2c\	2a/
2c\	2a/
1c	1a
=74	=74
1B	1g
2A/	2f/
2B\	2g/
=75	=75
2c\	2a/
2.d\	2.b\
4c\	4a/
4B\	4g#i/
4A/	4f#i/
=76	=76
1B	1g#i
1Al	1al
==	==
*-	*-
!!!RDF**kern: l=long note in original notation
!!!RDF**kern: i=editorial accidental
!!!ENC:	Chris Gage 02-10-2014
!!!END:	2014/10/05/
!!!EED:	Jesse Rodin
!!!EEV:	2014/10/18/
!!!ONB:	Translated from MusicXML and edited on 2014/10/18/ by Craig Sapp
!!muse2ps: C^@{COM}^i2I150v85,150Q16
